X: 1
T: Christy's Dance
C: P.D.Midgett 2007
R: waltz
Z: 2008 John Chambers <jc:trillian.mit.edu> 
S: Printed MS of unknown origin
N: P.D.Midgett wrote:
N: This tune was written in memory of my friend Christy Morgan, who died at  age
N: 31,  having been quite ill for several years.  She loved music and toward the
N: end of her life communication was by means of my harmonica.  Her illness kept
N: her  from  doing many things.  In this tune I see here "set free," enjoying a
N: dance in a beautiful evening gown.
M: 3/4
L: 1/8
K: D
A,2 \
| "D"F4FF | F2D2F2 |    A2B2A2 |     F4 A,2 \
|    F4FF | F2A2B2 |    A4  F2 | "A7"G4 A,2 |
| "A"E4EE | E2C2E2 |    G2A2G2 |     E4 A,2 \
|    E4EE | E2F2G2 | "D"B4A2   |     F4 A,2 ||
||"D"F4FF | F2D2F2 |    A2B2A2 |     F4  F2 \
|    A4AA | d2d2A2 | "G"B4B2   |     B2z2B2 |
| "G"B4BB | d2c2B2 | "D"A4AA   |     B2A2F2 \
| "A"E4EE | G2F2E2 | "D"D4A,2  |     D4  |]
